images/__logo.svg

<svg width="200" height="52" viewBox="0 0 200 52" fill="none" xmlns="http://www.w3.org/2000/svg">
<g clip-path="url(#clip0_16709_821)">
<path d="M0.237305 51.1114H3.16239V47.9127H4.78276C7.23962 47.9127 8.88626 46.466 8.88626 44.1459C8.88626 41.8521 7.28171 40.3369 4.88798 40.3369H0.237305V51.1114ZM3.16239 45.64V42.6728H4.19353C5.21942 42.6728 5.83495 43.22 5.83495 44.1459C5.83495 45.0665 5.21942 45.64 4.19353 45.64H3.16239Z" fill="white"/>
<path d="M9.95996 51.1114H12.8851V47.5549H13.8951L15.7891 51.1114H18.9667L16.7782 47.092C17.9251 46.5396 18.6089 45.4927 18.6089 43.9985C18.6089 41.7048 17.0044 40.3369 14.6106 40.3369H9.95996V51.1114ZM12.8851 45.2822V42.6728H13.9162C14.9421 42.6728 15.5576 43.0726 15.5576 43.9985C15.5576 44.9192 14.9421 45.2822 13.9162 45.2822H12.8851Z" fill="white"/>
<path d="M22.6537 51.1114L23.2745 49.0491H26.8308L27.4517 51.1114H30.6082L27.0518 40.3369H23.0535L19.4971 51.1114H22.6537ZM23.9374 46.8605L25.0106 43.3041H25.0948L26.168 46.8605H23.9374Z" fill="white"/>
<path d="M41.1987 44.3772C40.9672 41.7046 39.0102 40.1895 36.2955 40.1895C33.3914 40.1895 31.0977 42.1255 31.0977 45.724C31.0977 49.3066 33.3283 51.2584 36.2955 51.2584C39.4521 51.2584 41.0514 49.0699 41.1987 47.2391L38.2315 47.218C38.0842 48.1387 37.4319 48.7121 36.3586 48.7121C34.9329 48.7121 34.1069 47.702 34.1069 45.724C34.1069 43.851 34.9066 42.7358 36.3797 42.7358C37.5055 42.7358 38.1474 43.3986 38.2315 44.3772H41.1987Z" fill="white"/>
<path d="M42.2314 42.6938H45.4722V51.1114H48.3552V42.6938H51.596V40.3369H42.2314V42.6938Z" fill="white"/>
<path d="M55.6214 40.3369H52.6963V51.1114H55.6214V40.3369Z" fill="white"/>
<path d="M67.0669 44.3772C66.8354 41.7046 64.8783 40.1895 62.1637 40.1895C59.2596 40.1895 56.9658 42.1255 56.9658 45.724C56.9658 49.3066 59.1965 51.2584 62.1637 51.2584C65.3202 51.2584 66.9195 49.0699 67.0669 47.2391L64.0997 47.218C63.9523 48.1387 63.3 48.7121 62.2268 48.7121C60.8011 48.7121 59.9751 47.702 59.9751 45.724C59.9751 43.851 60.7748 42.7358 62.2478 42.7358C63.3737 42.7358 64.0155 43.3986 64.0997 44.3772H67.0669Z" fill="white"/>
<path d="M74.7708 40.3369V46.9868C74.7708 47.9916 74.0501 48.7123 73.0452 48.7123C72.0404 48.7123 71.3196 47.9916 71.3196 46.9868V40.3369H68.3945V47.2393C68.3945 49.7014 70.2569 51.2376 73.0452 51.2376C75.8123 51.2376 77.696 49.7014 77.696 47.2393V40.3369H74.7708Z" fill="white"/>
<path d="M79.0859 40.3369V51.1114H81.9474V44.8403H82.0319L84.4311 51.0271H86.1563L88.5556 44.8824H88.6393V51.1114H91.5015V40.3369H87.8607L85.357 46.4397H85.2304L82.7259 40.3369H79.0859Z" fill="white"/>
<path d="M98.6377 51.1114L99.2585 49.0491H102.815L103.436 51.1114H106.593L103.036 40.3369H99.0378L95.4814 51.1114H98.6377ZM99.9214 46.8605L100.995 43.3041H101.079L102.153 46.8605H99.9214Z" fill="white"/>
<path d="M107.63 51.1114H110.555V47.5549H111.565L113.459 51.1114H116.637L114.448 47.092C115.595 46.5396 116.279 45.4927 116.279 43.9985C116.279 41.7048 114.674 40.3369 112.28 40.3369H107.63V51.1114ZM110.555 45.2822V42.6728H111.586C112.612 42.6728 113.228 43.0726 113.228 43.9985C113.228 44.9192 112.612 45.2822 111.586 45.2822H110.555Z" fill="white"/>
<path d="M117.231 42.6938H120.472V51.1114H123.355V42.6938H126.596V40.3369H117.231V42.6938Z" fill="white"/>
<path d="M137.645 43.8932H140.601C140.375 41.7309 138.413 40.1895 135.866 40.1895C132.963 40.1895 130.605 42.1886 130.605 45.745C130.605 49.1541 132.742 51.2584 135.888 51.2584C138.708 51.2584 140.728 49.5329 140.728 46.5867V45.0926H135.951V47.176H137.908C137.882 48.1124 137.219 48.7121 135.908 48.7121C134.394 48.7121 133.615 47.5969 133.615 45.7029C133.615 43.8352 134.457 42.7358 135.93 42.7358C136.845 42.7358 137.466 43.1566 137.645 43.8932Z" fill="white"/>
<path d="M144.558 51.1114L145.178 49.0491H148.735L149.356 51.1114H152.512L148.956 40.3369H144.958L141.401 51.1114H144.558ZM145.841 46.8605L146.915 43.3041H146.999L148.072 46.8605H145.841Z" fill="white"/>
<path d="M153.551 51.1114H160.832V48.7545H156.476V40.3369H153.551V51.1114Z" fill="white"/>
<path d="M162.014 51.1114H169.294V48.7545H164.939V40.3369H162.014V51.1114Z" fill="white"/>
<path d="M170.478 51.1114H178.221V48.7545H173.402V46.9026H177.843V44.5457H173.402V42.6938H178.242V40.3369H170.478V51.1114Z" fill="white"/>
<path d="M179.693 51.1114H182.619V47.5549H183.628L185.522 51.1114H188.7L186.511 47.092C187.659 46.5396 188.342 45.4927 188.342 43.9985C188.342 41.7048 186.738 40.3369 184.344 40.3369H179.693V51.1114ZM182.619 45.2822V42.6728H183.65C184.676 42.6728 185.291 43.0726 185.291 43.9985C185.291 44.9192 184.676 45.2822 183.65 45.2822H182.619Z" fill="white"/>
<path d="M188.641 40.3369L192.597 47.7233V51.1114H195.501V47.7233L199.457 40.3369H196.195L194.091 44.714H194.007L191.903 40.3369H188.641Z" fill="white"/>
<path d="M87.4072 1.48148C87.4072 0.663282 88.0702 0 88.8887 0H109.629C110.448 0 111.111 0.663282 111.111 1.48148V22.2222C111.111 23.0404 110.448 23.7037 109.629 23.7037H88.8887C88.0702 23.7037 87.4072 23.0404 87.4072 22.2222V1.48148Z" fill="#0278FE"/>
<path d="M111.111 4.44434H87.4072V5.92582H111.111V4.44434Z" fill="#2A2C2F"/>
<path d="M97.0371 4.44434H95.5557V23.7036H97.0371V4.44434Z" fill="#2A2C2F"/>
</g>
<defs>
<clipPath id="clip0_16709_821">
<rect width="200" height="51.8519" fill="white"/>
</clipPath>
</defs>
</svg>

<svg xmlns="http://www.w3.org/2000/svg" width="200" height="52" fill="none"><g clip-path="url(#a)"><path fill="#fff" d="M.237 51.111h2.925v-3.198h1.62c2.458 0 4.104-1.447 4.104-3.767 0-2.294-1.604-3.81-3.998-3.81H.238v10.775Zm2.925-5.471v-2.967h1.032c1.025 0 1.641.547 1.641 1.473 0 .92-.616 1.494-1.641 1.494H3.162ZM9.96 51.111h2.925v-3.556h1.01l1.894 3.556h3.178l-2.189-4.019c1.147-.552 1.83-1.6 1.83-3.093 0-2.294-1.604-3.662-3.997-3.662H9.96V51.11Zm2.925-5.829v-2.61h1.031c1.026 0 1.642.4 1.642 1.327 0 .92-.616 1.283-1.642 1.283h-1.03ZM22.654 51.111l.62-2.062h3.557l.62 2.062h3.157l-3.556-10.774h-3.998L19.497 51.11h3.157Zm1.283-4.25 1.074-3.557h.084l1.073 3.556h-2.23ZM41.199 44.377c-.232-2.672-2.189-4.188-4.904-4.188-2.904 0-5.197 1.937-5.197 5.535 0 3.583 2.23 5.534 5.197 5.534 3.157 0 4.756-2.188 4.904-4.019l-2.968-.021c-.147.92-.8 1.494-1.872 1.494-1.426 0-2.252-1.01-2.252-2.988 0-1.873.8-2.988 2.273-2.988 1.125 0 1.767.663 1.851 1.641H41.2ZM42.231 42.694h3.241v8.417h2.883v-8.417h3.241v-2.357h-9.365v2.357ZM55.621 40.337h-2.925V51.11h2.925V40.337ZM67.067 44.377c-.232-2.672-2.189-4.188-4.903-4.188-2.904 0-5.198 1.937-5.198 5.535 0 3.583 2.23 5.534 5.198 5.534 3.156 0 4.755-2.188 4.903-4.019l-2.967-.021c-.148.92-.8 1.494-1.873 1.494-1.426 0-2.252-1.01-2.252-2.988 0-1.873.8-2.988 2.273-2.988 1.126 0 1.768.663 1.852 1.641h2.967ZM74.77 40.337v6.65c0 1.005-.72 1.725-1.725 1.725-1.005 0-1.725-.72-1.725-1.725v-6.65h-2.925v6.902c0 2.462 1.862 3.999 4.65 3.999 2.767 0 4.651-1.537 4.651-3.999v-6.902h-2.925ZM79.086 40.337V51.11h2.861v-6.27h.085l2.4 6.186h1.724l2.4-6.145h.083v6.23h2.862V40.336h-3.64l-2.504 6.103h-.127l-2.504-6.103h-3.64ZM98.638 51.111l.62-2.062h3.557l.621 2.062h3.157l-3.557-10.774h-3.998L95.48 51.11h3.157Zm1.283-4.25 1.074-3.557h.084l1.074 3.556h-2.232ZM107.63 51.111h2.925v-3.556h1.01l1.894 3.556h3.178l-2.189-4.019c1.147-.552 1.831-1.6 1.831-3.093 0-2.294-1.605-3.662-3.999-3.662h-4.65V51.11Zm2.925-5.829v-2.61h1.031c1.026 0 1.642.4 1.642 1.327 0 .92-.616 1.283-1.642 1.283h-1.031ZM117.231 42.694h3.241v8.417h2.883v-8.417h3.241v-2.357h-9.365v2.357ZM137.645 43.893h2.956c-.226-2.162-2.188-3.703-4.735-3.703-2.903 0-5.261 1.999-5.261 5.555 0 3.41 2.137 5.513 5.283 5.513 2.82 0 4.84-1.725 4.84-4.671v-1.494h-4.777v2.083h1.957c-.026.936-.689 1.536-2 1.536-1.514 0-2.293-1.115-2.293-3.01 0-1.867.842-2.966 2.315-2.966.915 0 1.536.42 1.715 1.157ZM144.558 51.111l.62-2.062h3.557l.621 2.062h3.156l-3.556-10.774h-3.998l-3.557 10.774h3.157Zm1.283-4.25 1.074-3.557h.084l1.073 3.556h-2.231ZM153.551 51.111h7.281v-2.356h-4.356v-8.418h-2.925V51.11ZM162.014 51.111h7.28v-2.356h-4.355v-8.418h-2.925V51.11ZM170.478 51.111h7.743v-2.356h-4.819v-1.852h4.441v-2.357h-4.441v-1.852h4.84v-2.357h-7.764V51.11ZM179.693 51.111h2.926v-3.556h1.009l1.894 3.556h3.178l-2.189-4.019c1.148-.552 1.831-1.6 1.831-3.093 0-2.294-1.604-3.662-3.998-3.662h-4.651V51.11Zm2.926-5.829v-2.61h1.031c1.026 0 1.641.4 1.641 1.327 0 .92-.615 1.283-1.641 1.283h-1.031ZM188.641 40.337l3.956 7.386v3.388h2.904v-3.388l3.956-7.386h-3.262l-2.104 4.377h-.084l-2.104-4.377h-3.262Z"/><path fill="#0278FE" d="M87.407 1.481C87.407.663 88.07 0 88.89 0h20.74c.819 0 1.482.663 1.482 1.481v20.741c0 .818-.663 1.482-1.482 1.482h-20.74a1.481 1.481 0 0 1-1.482-1.482V1.482Z"/><path fill="#2A2C2F" d="M111.111 4.444H87.407v1.482h23.704V4.444Z"/><path fill="#2A2C2F" d="M97.037 4.444h-1.481v19.26h1.481V4.444Z"/></g><defs><clipPath id="a"><path fill="#fff" d="M0 0h200v51.852H0z"/></clipPath></defs></svg>
